public/images/sidebar/home.svg

<svg width="16" height="16" viewBox="0 0 16 16" fill="none" xmlns="http://www.w3.org/2000/svg">
<path fill-rule="evenodd" clip-rule="evenodd" d="M7.59075 0.807119C7.83149 0.619876 8.1686 0.619876 8.40934 0.807119L14.4093 5.47379C14.5717 5.60009 14.6667 5.79429 14.6667 6.00002V13.3334C14.6667 13.8638 14.456 14.3725 14.0809 14.7476C13.7059 15.1226 13.1971 15.3334 12.6667 15.3334H3.33337C2.80294 15.3334 2.29423 15.1226 1.91916 14.7476C1.54409 14.3725 1.33337 13.8638 1.33337 13.3334V6.00002C1.33337 5.79429 1.42836 5.60009 1.59075 5.47379L7.59075 0.807119ZM2.66671 6.32608V13.3334C2.66671 13.5102 2.73695 13.6797 2.86197 13.8048C2.98699 13.9298 3.15656 14 3.33337 14H12.6667C12.8435 14 13.0131 13.9298 13.1381 13.8048C13.2631 13.6797 13.3334 13.5102 13.3334 13.3334V6.32608L8.00004 2.17793L2.66671 6.32608Z" fill="#121312"/>
<path fill-rule="evenodd" clip-rule="evenodd" d="M5.33337 7.99998C5.33337 7.63179 5.63185 7.33331 6.00004 7.33331H10C10.3682 7.33331 10.6667 7.63179 10.6667 7.99998V14.6666C10.6667 15.0348 10.3682 15.3333 10 15.3333C9.63185 15.3333 9.33337 15.0348 9.33337 14.6666V8.66665H6.66671V14.6666C6.66671 15.0348 6.36823 15.3333 6.00004 15.3333C5.63185 15.3333 5.33337 15.0348 5.33337 14.6666V7.99998Z" fill="#121312"/>
</svg>

<svg width="16" height="16" fill="none" xmlns="http://www.w3.org/2000/svg"><path fill-rule="evenodd" clip-rule="evenodd" d="M7.59.807a.667.667 0 01.82 0l6 4.667c.162.126.257.32.257.526v7.333a2 2 0 01-2 2H3.333a2 2 0 01-2-2V6c0-.206.095-.4.258-.526l6-4.667zm-4.923 5.52v7.006a.667.667 0 00.666.667h9.334a.667.667 0 00.666-.667V6.326L8 2.178 2.667 6.326z" fill="#162D45"/><path fill-rule="evenodd" clip-rule="evenodd" d="M5.333 8c0-.368.299-.667.667-.667h4c.368 0 .667.299.667.667v6.667a.667.667 0 01-1.334 0v-6H6.667v6a.667.667 0 11-1.334 0V8z" fill="#162D45"/></svg>
